assets/icon-iron.svg

<svg
  class="icon icon-accordion icon-iron"
  aria-hidden="true"
  focusable="false"
  xmlns="http://www.w3.org/2000/svg"
  width="20"
  height="20"
  viewBox="0 0 20 20"
>
  <path d="M7.06843 2C7.06843 1.72386 7.29229 1.5 7.56843 1.5H18.8715C19.5071 1.5 20 2.01682 20 2.64089H19C19 2.55058 18.9365 2.5 18.8715 2.5H7.56843C7.29229 2.5 7.06843 2.27614 7.06843 2ZM0.0496071 16.2893L0.0456548 16.3034L0.0425352 16.3177C-0.0693018 16.8308 0.0392824 17.3941 0.373431 17.8237C0.704644 18.2495 1.21056 18.5 1.7572 18.5H18.2429C19.2185 18.5 20 17.6891 20 16.7183V2.64089H19V7.78236H12.3493C7.3981 7.78236 4.24306 9.43504 2.37802 11.7502C1.47719 12.8655 0.897699 13.9807 0.5528 14.8266C0.38499 15.233 0.255782 15.5934 0.17739 15.8549C0.15381 15.9277 0.121759 16.037 0.0970143 16.1228C0.0838597 16.1684 0.0720441 16.2099 0.0635213 16.2399L0.0534033 16.2758L0.0496071 16.2893ZM19 8.78236H12.3493C7.63614 8.78236 4.79462 10.3441 3.15638 12.378C2.3266 13.4053 1.79297 14.4333 1.47838 15.2051L1.47751 15.2072C1.3171 15.5957 1.19979 15.9259 1.13382 16.1469L1.13011 16.1593C1.11264 16.2128 1.08389 16.3096 1.05785 16.3999C1.04524 16.4436 1.03388 16.4835 1.02566 16.5125L1.01689 16.5436C0.968598 16.7829 1.02541 17.0332 1.16275 17.2097C1.3055 17.3933 1.52075 17.5 1.7572 17.5H18.2429C18.648 17.5 19 17.1552 19 16.7183V8.78236Z" fill-rule="evenodd"/>
  <path d="M8.7886 14.3589C8.3886 14.3589 8.08859 14.6589 8.08859 15.0589C8.08859 15.4489 8.3886 15.7489 8.7886 15.7489C9.1886 15.7489 9.48861 15.4489 9.48861 15.0589C9.47861 14.6689 9.1786 14.3589 8.7886 14.3589Z"/>
  <path d="M11.6186 14.3589C11.2186 14.3589 10.9186 14.6589 10.9186 15.0589C10.9186 15.4489 11.2186 15.7489 11.6186 15.7489C12.0186 15.7489 12.3186 15.4489 12.3186 15.0589C12.3086 14.6689 12.0086 14.3589 11.6186 14.3589Z"/>
  <path d="M14.4486 14.3589C14.0486 14.3589 13.7486 14.6589 13.7486 15.0589C13.7486 15.4489 14.0486 15.7489 14.4486 15.7489C14.8486 15.7489 15.1486 15.4489 15.1486 15.0589C15.1486 14.6689 14.8486 14.3589 14.4486 14.3589Z"/>
</svg>

<svg xmlns="http://www.w3.org/2000/svg" class="icon icon-accordion icon-iron" viewBox="0 0 20 20"><path fill-rule="evenodd" d="M7.068 2a.5.5 0 0 1 .5-.5h11.304A1.13 1.13 0 0 1 20 2.64h-1c0-.09-.064-.14-.128-.14H7.568a.5.5 0 0 1-.5-.5M.05 16.29l-.004.013-.003.015a1.83 1.83 0 0 0 .33 1.506c.332.425.838.676 1.384.676h16.486c.976 0 1.757-.81 1.757-1.782V2.641h-1v5.141h-6.65c-4.952 0-8.107 1.653-9.972 3.968a12.4 12.4 0 0 0-1.825 3.077 11.5 11.5 0 0 0-.49 1.413l-.01.036zM19 8.781h-6.65c-4.714 0-7.555 1.562-9.194 3.596a11.5 11.5 0 0 0-1.678 2.827v.002a11 11 0 0 0-.344.94l-.004.012a9 9 0 0 0-.104.354l-.01.03a.84.84 0 0 0 .147.667c.143.183.358.29.594.29h16.486a.775.775 0 0 0 .757-.782z"/><path d="M8.789 14.359c-.4 0-.7.3-.7.7 0 .39.3.69.7.69s.7-.3.7-.69a.7.7 0 0 0-.7-.7m2.83 0c-.4 0-.7.3-.7.7 0 .39.3.69.7.69s.7-.3.7-.69a.7.7 0 0 0-.7-.7m2.83 0c-.4 0-.7.3-.7.7 0 .39.3.69.7.69s.7-.3.7-.69-.3-.7-.7-.7"/></svg>
